usr/share/icons/biglinux-icons-material/16/actions/lines-connector.svg

<svg xmlns="http://www.w3.org/2000/svg" viewBox="0 0 16 16">
  <defs id="defs3051">
    <style type="text/css" id="current-color-scheme">
      .ColorScheme-Text {
        color:#dedede;
      }
      .ColorScheme-Highlight {
        color:#3daee9;
      }
      </style>
  </defs>
  <path 
        style="fill:currentColor;fill-opacity:1;stroke:none"
        d="m 9.461,3.005 -3.59925,9 -1.8615,0 0,0.99975 2.53875,0 3.59775,-9 0.86325,0 0,-0.99975 -0.99975,0 z"
        class="ColorScheme-Text"
        />
  <path
        style="fill:currentColor;fill-opacity:1;stroke:none"
        d="M 11 2 L 11 5 L 14 5 L 14 2 L 11 2 z M 12 3 L 13 3 L 13 4 L 12 4 L 12 3 z M 2 11 L 2 14 L 5 14 L 5 11 L 2 11 z M 3 12 L 4 12 L 4 13 L 3 13 L 3 12 z "
        class="ColorScheme-Highlight"
      />
</svg>

<svg xmlns="http://www.w3.org/2000/svg" viewBox="0 0 16 16"><path d="m9.461 3.005-3.6 9h-1.86v1h2.538l3.598-9H11v-1h-1z" style="fill:currentColor;fill-opacity:1;stroke:none;color:#dedede"/><path d="M11 2v3h3V2h-3zm1 1h1v1h-1V3zM2 11v3h3v-3H2zm1 1h1v1H3v-1z" style="fill:currentColor;fill-opacity:1;stroke:none;color:#3daee9"/></svg>
